; GCODE GENERATED BY IMAGE-TO-GCODE CONVERTER
; DATE: 12/21/2025, 9:14:04 PM
; BED SIZE: 300x300mm

G21          ; SET UNITS TO MILLIMETERS
G90          ; ABSOLUTE POSITIONING
G0 Z5.00      ; PEN UP TO SAFE HEIGHT
G0 X0 Y0     ; MOVE TO ORIGIN

; BEGIN DRAWING
G0 X138.000 Y266.667   ; RAPID TO START
G1 Z-1.00 F500    ; PEN DOWN
G4 P100           ; DWELL
G1 X162.000 Y266.667 F2000  ; DRAW LINE
G1 X163.333 Y265.333 F2000  ; DRAW LINE
G1 X170.000 Y265.333 F2000  ; DRAW LINE
G1 X171.333 Y264.000 F2000  ; DRAW LINE
G1 X182.000 Y262.667 F2000  ; DRAW LINE
G1 X194.000 Y257.333 F2000  ; DRAW LINE
G1 X196.667 Y257.333 F2000  ; DRAW LINE
G1 X201.804 Y254.871 F2000  ; DRAW LINE
G1 X211.543 Y249.409 F2000  ; DRAW LINE
G1 X224.811 Y239.877 F2000  ; DRAW LINE
G1 X232.763 Y232.629 F2000  ; DRAW LINE
G1 X240.000 Y224.667 F2000  ; DRAW LINE
G1 X252.000 Y207.333 F2000  ; DRAW LINE
G1 X262.667 Y182.000 F2000  ; DRAW LINE
G1 X262.667 Y178.000 F2000  ; DRAW LINE
G1 X265.333 Y171.333 F2000  ; DRAW LINE
G1 X265.333 Y163.333 F2000  ; DRAW LINE
G1 X266.667 Y162.000 F2000  ; DRAW LINE
G1 X266.667 Y138.000 F2000  ; DRAW LINE
G1 X265.333 Y136.667 F2000  ; DRAW LINE
G1 X265.333 Y128.667 F2000  ; DRAW LINE
G1 X264.000 Y127.333 F2000  ; DRAW LINE
G1 X262.667 Y118.000 F2000  ; DRAW LINE
G1 X252.000 Y92.667 F2000  ; DRAW LINE
G1 X240.000 Y75.333 F2000  ; DRAW LINE
G1 X224.667 Y60.000 F2000  ; DRAW LINE
G1 X207.333 Y48.000 F2000  ; DRAW LINE
G1 X182.000 Y37.333 F2000  ; DRAW LINE
G1 X171.333 Y36.000 F2000  ; DRAW LINE
G1 X170.000 Y34.667 F2000  ; DRAW LINE
G1 X163.333 Y34.667 F2000  ; DRAW LINE
G1 X162.000 Y33.333 F2000  ; DRAW LINE
G1 X138.000 Y33.333 F2000  ; DRAW LINE
G1 X136.667 Y34.667 F2000  ; DRAW LINE
G1 X130.000 Y34.667 F2000  ; DRAW LINE
G1 X128.667 Y36.000 F2000  ; DRAW LINE
G1 X118.000 Y37.333 F2000  ; DRAW LINE
G1 X92.667 Y48.000 F2000  ; DRAW LINE
G1 X75.333 Y60.000 F2000  ; DRAW LINE
G1 X60.000 Y75.333 F2000  ; DRAW LINE
G1 X48.000 Y92.667 F2000  ; DRAW LINE
G1 X37.333 Y118.000 F2000  ; DRAW LINE
G1 X37.333 Y122.000 F2000  ; DRAW LINE
G1 X34.667 Y128.667 F2000  ; DRAW LINE
G1 X34.667 Y136.667 F2000  ; DRAW LINE
G1 X33.333 Y138.000 F2000  ; DRAW LINE
G1 X33.333 Y162.000 F2000  ; DRAW LINE
G1 X34.667 Y163.333 F2000  ; DRAW LINE
G1 X34.667 Y171.333 F2000  ; DRAW LINE
G1 X36.000 Y172.667 F2000  ; DRAW LINE
G1 X37.333 Y182.000 F2000  ; DRAW LINE
G1 X48.000 Y207.333 F2000  ; DRAW LINE
G1 X60.000 Y224.667 F2000  ; DRAW LINE
G1 X75.333 Y240.000 F2000  ; DRAW LINE
G1 X86.000 Y248.000 F2000  ; DRAW LINE
G1 X103.333 Y257.333 F2000  ; DRAW LINE
G1 X106.000 Y257.333 F2000  ; DRAW LINE
G1 X118.000 Y262.667 F2000  ; DRAW LINE
G1 X128.667 Y264.000 F2000  ; DRAW LINE
G1 X130.000 Y265.333 F2000  ; DRAW LINE
G1 X136.667 Y265.333 F2000  ; DRAW LINE
G1 X138.000 Y266.667 F2000  ; DRAW LINE
G0 Z5.00               ; PEN UP

G0 X138.667 Y252.000   ; RAPID TO START
G1 Z-1.00 F500    ; PEN DOWN
G4 P100           ; DWELL
G1 X137.333 Y250.667 F2000  ; DRAW LINE
G1 X130.667 Y250.667 F2000  ; DRAW LINE
G1 X124.000 Y248.000 F2000  ; DRAW LINE
G1 X120.000 Y248.000 F2000  ; DRAW LINE
G1 X112.000 Y244.000 F2000  ; DRAW LINE
G1 X109.333 Y244.000 F2000  ; DRAW LINE
G1 X94.667 Y236.000 F2000  ; DRAW LINE
G1 X82.667 Y226.667 F2000  ; DRAW LINE
G1 X73.333 Y217.333 F2000  ; DRAW LINE
G1 X60.000 Y198.667 F2000  ; DRAW LINE
G1 X52.000 Y180.000 F2000  ; DRAW LINE
G1 X50.667 Y170.667 F2000  ; DRAW LINE
G1 X49.333 Y169.333 F2000  ; DRAW LINE
G1 X49.333 Y162.667 F2000  ; DRAW LINE
G1 X48.000 Y161.333 F2000  ; DRAW LINE
G1 X48.000 Y137.333 F2000  ; DRAW LINE
G1 X49.333 Y136.000 F2000  ; DRAW LINE
G1 X49.333 Y129.333 F2000  ; DRAW LINE
G1 X52.000 Y122.667 F2000  ; DRAW LINE
G1 X52.000 Y118.667 F2000  ; DRAW LINE
G1 X60.000 Y100.000 F2000  ; DRAW LINE
G1 X73.333 Y81.333 F2000  ; DRAW LINE
G1 X82.667 Y73.333 F2000  ; DRAW LINE
G1 X101.333 Y60.000 F2000  ; DRAW LINE
G1 X120.000 Y52.000 F2000  ; DRAW LINE
G1 X129.333 Y50.667 F2000  ; DRAW LINE
G1 X130.667 Y49.333 F2000  ; DRAW LINE
G1 X137.333 Y49.333 F2000  ; DRAW LINE
G1 X138.667 Y48.000 F2000  ; DRAW LINE
G1 X162.667 Y48.000 F2000  ; DRAW LINE
G1 X164.000 Y49.333 F2000  ; DRAW LINE
G1 X170.667 Y49.333 F2000  ; DRAW LINE
G1 X177.333 Y52.000 F2000  ; DRAW LINE
G1 X181.333 Y52.000 F2000  ; DRAW LINE
G1 X200.000 Y60.000 F2000  ; DRAW LINE
G1 X218.667 Y73.333 F2000  ; DRAW LINE
G1 X226.667 Y81.333 F2000  ; DRAW LINE
G1 X240.000 Y100.000 F2000  ; DRAW LINE
G1 X248.000 Y118.667 F2000  ; DRAW LINE
G1 X249.333 Y128.000 F2000  ; DRAW LINE
G1 X250.667 Y129.333 F2000  ; DRAW LINE
G1 X250.667 Y136.000 F2000  ; DRAW LINE
G1 X252.000 Y137.333 F2000  ; DRAW LINE
G1 X252.000 Y161.333 F2000  ; DRAW LINE
G1 X250.667 Y162.667 F2000  ; DRAW LINE
G1 X250.667 Y169.333 F2000  ; DRAW LINE
G1 X248.000 Y176.000 F2000  ; DRAW LINE
G1 X248.000 Y180.000 F2000  ; DRAW LINE
G1 X240.000 Y198.667 F2000  ; DRAW LINE
G1 X226.667 Y217.333 F2000  ; DRAW LINE
G1 X206.667 Y236.000 F2000  ; DRAW LINE
G1 X185.333 Y246.667 F2000  ; DRAW LINE
G1 X172.000 Y249.333 F2000  ; DRAW LINE
G1 X170.667 Y250.667 F2000  ; DRAW LINE
G1 X164.000 Y250.667 F2000  ; DRAW LINE
G1 X162.667 Y252.000 F2000  ; DRAW LINE
G1 X138.667 Y252.000 F2000  ; DRAW LINE
G0 Z5.00               ; PEN UP

G0 X112.667 Y194.667   ; RAPID TO START
G1 Z-1.00 F500    ; PEN DOWN
G4 P100           ; DWELL
G1 X118.917 Y193.451 F2000  ; DRAW LINE
G1 X122.569 Y191.503 F2000  ; DRAW LINE
G1 X125.333 Y188.667 F2000  ; DRAW LINE
G1 X128.000 Y183.333 F2000  ; DRAW LINE
G1 X128.000 Y175.333 F2000  ; DRAW LINE
G1 X120.667 Y166.667 F2000  ; DRAW LINE
G1 X115.800 Y164.867 F2000  ; DRAW LINE
G1 X108.667 Y165.333 F2000  ; DRAW LINE
G1 X101.333 Y171.333 F2000  ; DRAW LINE
G1 X98.667 Y178.000 F2000  ; DRAW LINE
G1 X98.667 Y182.000 F2000  ; DRAW LINE
G1 X100.000 Y186.000 F2000  ; DRAW LINE
G1 X107.333 Y193.333 F2000  ; DRAW LINE
G1 X110.867 Y193.133 F2000  ; DRAW LINE
G1 X112.667 Y194.667 F2000  ; DRAW LINE
G0 Z5.00               ; PEN UP

G0 X184.667 Y194.667   ; RAPID TO START
G1 Z-1.00 F500    ; PEN DOWN
G4 P100           ; DWELL
G1 X192.667 Y193.333 F2000  ; DRAW LINE
G1 X200.000 Y186.000 F2000  ; DRAW LINE
G1 X201.333 Y178.000 F2000  ; DRAW LINE
G1 X198.667 Y171.333 F2000  ; DRAW LINE
G1 X194.000 Y166.667 F2000  ; DRAW LINE
G1 X190.288 Y165.045 F2000  ; DRAW LINE
G1 X182.000 Y165.333 F2000  ; DRAW LINE
G1 X173.333 Y172.667 F2000  ; DRAW LINE
G1 X171.840 Y175.973 F2000  ; DRAW LINE
G1 X172.000 Y183.333 F2000  ; DRAW LINE
G1 X178.000 Y192.000 F2000  ; DRAW LINE
G1 X184.667 Y194.667 F2000  ; DRAW LINE
G0 Z5.00               ; PEN UP

G0 X91.333 Y126.667   ; RAPID TO START
G1 Z-1.00 F500    ; PEN DOWN
G4 P100           ; DWELL
G1 X97.111 Y124.044 F2000  ; DRAW LINE
G1 X101.333 Y116.667 F2000  ; DRAW LINE
G1 X114.000 Y104.000 F2000  ; DRAW LINE
G1 X128.667 Y96.000 F2000  ; DRAW LINE
G1 X136.667 Y93.333 F2000  ; DRAW LINE
G1 X154.000 Y92.000 F2000  ; DRAW LINE
G1 X155.333 Y93.333 F2000  ; DRAW LINE
G1 X163.333 Y93.333 F2000  ; DRAW LINE
G1 X182.000 Y101.333 F2000  ; DRAW LINE
G1 X198.667 Y116.667 F2000  ; DRAW LINE
G1 X204.667 Y125.333 F2000  ; DRAW LINE
G1 X208.667 Y126.667 F2000  ; DRAW LINE
G1 X210.433 Y125.133 F2000  ; DRAW LINE
G1 X213.333 Y125.333 F2000  ; DRAW LINE
G1 X216.000 Y118.000 F2000  ; DRAW LINE
G1 X210.389 Y108.144 F2000  ; DRAW LINE
G1 X203.371 Y99.696 F2000  ; DRAW LINE
G1 X199.333 Y96.000 F2000  ; DRAW LINE
G1 X186.000 Y86.667 F2000  ; DRAW LINE
G1 X174.000 Y81.333 F2000  ; DRAW LINE
G1 X170.000 Y81.333 F2000  ; DRAW LINE
G1 X163.333 Y78.667 F2000  ; DRAW LINE
G1 X154.000 Y78.667 F2000  ; DRAW LINE
G1 X152.293 Y77.173 F2000  ; DRAW LINE
G1 X150.173 Y76.893 F2000  ; DRAW LINE
G1 X147.333 Y77.333 F2000  ; DRAW LINE
G1 X146.000 Y78.667 F2000  ; DRAW LINE
G1 X136.667 Y78.667 F2000  ; DRAW LINE
G1 X135.333 Y80.000 F2000  ; DRAW LINE
G1 X131.333 Y80.000 F2000  ; DRAW LINE
G1 X119.333 Y84.000 F2000  ; DRAW LINE
G1 X110.609 Y88.876 F2000  ; DRAW LINE
G1 X100.209 Y96.609 F2000  ; DRAW LINE
G1 X93.333 Y103.333 F2000  ; DRAW LINE
G1 X86.667 Y112.667 F2000  ; DRAW LINE
G1 X84.000 Y119.333 F2000  ; DRAW LINE
G1 X86.667 Y125.333 F2000  ; DRAW LINE
G1 X89.567 Y125.133 F2000  ; DRAW LINE
G1 X91.333 Y126.667 F2000  ; DRAW LINE
G0 Z5.00               ; PEN UP

G0 X0.000 Y300.000   ; RAPID TO START
G1 Z-1.00 F500    ; PEN DOWN
G4 P100           ; DWELL
G1 X300.000 Y300.000 F2000  ; DRAW LINE
G1 X300.000 Y0.000 F2000  ; DRAW LINE
G1 X0.000 Y0.000 F2000  ; DRAW LINE
G1 X0.000 Y300.000 F2000  ; DRAW LINE
G0 Z5.00               ; PEN UP

G0 X138.667 Y266.667   ; RAPID TO START
G1 Z-1.00 F500    ; PEN DOWN
G4 P100           ; DWELL
G1 X137.333 Y265.333 F2000  ; DRAW LINE
G1 X130.667 Y265.333 F2000  ; DRAW LINE
G1 X129.333 Y264.000 F2000  ; DRAW LINE
G1 X118.667 Y262.667 F2000  ; DRAW LINE
G1 X106.667 Y257.333 F2000  ; DRAW LINE
G1 X104.000 Y257.333 F2000  ; DRAW LINE
G1 X86.667 Y248.000 F2000  ; DRAW LINE
G1 X76.000 Y240.000 F2000  ; DRAW LINE
G1 X60.000 Y224.000 F2000  ; DRAW LINE
G1 X48.000 Y206.667 F2000  ; DRAW LINE
G1 X37.333 Y181.333 F2000  ; DRAW LINE
G1 X36.000 Y172.000 F2000  ; DRAW LINE
G1 X34.667 Y170.667 F2000  ; DRAW LINE
G1 X34.667 Y162.667 F2000  ; DRAW LINE
G1 X33.333 Y161.333 F2000  ; DRAW LINE
G1 X33.333 Y137.333 F2000  ; DRAW LINE
G1 X34.667 Y136.000 F2000  ; DRAW LINE
G1 X34.667 Y128.000 F2000  ; DRAW LINE
G1 X37.333 Y121.333 F2000  ; DRAW LINE
G1 X37.333 Y117.333 F2000  ; DRAW LINE
G1 X48.000 Y92.000 F2000  ; DRAW LINE
G1 X60.000 Y74.667 F2000  ; DRAW LINE
G1 X76.000 Y60.000 F2000  ; DRAW LINE
G1 X93.333 Y48.000 F2000  ; DRAW LINE
G1 X118.667 Y37.333 F2000  ; DRAW LINE
G1 X129.333 Y36.000 F2000  ; DRAW LINE
G1 X130.667 Y34.667 F2000  ; DRAW LINE
G1 X137.333 Y34.667 F2000  ; DRAW LINE
G1 X138.667 Y33.333 F2000  ; DRAW LINE
G1 X162.667 Y33.333 F2000  ; DRAW LINE
G1 X164.000 Y34.667 F2000  ; DRAW LINE
G1 X170.667 Y34.667 F2000  ; DRAW LINE
G1 X172.000 Y36.000 F2000  ; DRAW LINE
G1 X182.667 Y37.333 F2000  ; DRAW LINE
G1 X208.000 Y48.000 F2000  ; DRAW LINE
G1 X225.333 Y60.000 F2000  ; DRAW LINE
G1 X240.000 Y74.667 F2000  ; DRAW LINE
G1 X252.000 Y92.000 F2000  ; DRAW LINE
G1 X262.667 Y117.333 F2000  ; DRAW LINE
G1 X264.000 Y126.667 F2000  ; DRAW LINE
G1 X265.333 Y128.000 F2000  ; DRAW LINE
G1 X265.333 Y136.000 F2000  ; DRAW LINE
G1 X266.667 Y137.333 F2000  ; DRAW LINE
G1 X266.667 Y161.333 F2000  ; DRAW LINE
G1 X265.333 Y162.667 F2000  ; DRAW LINE
G1 X265.333 Y170.667 F2000  ; DRAW LINE
G1 X262.667 Y177.333 F2000  ; DRAW LINE
G1 X262.667 Y181.333 F2000  ; DRAW LINE
G1 X252.000 Y206.667 F2000  ; DRAW LINE
G1 X240.000 Y224.000 F2000  ; DRAW LINE
G1 X224.853 Y239.573 F2000  ; DRAW LINE
G1 X216.320 Y246.240 F2000  ; DRAW LINE
G1 X202.320 Y254.840 F2000  ; DRAW LINE
G1 X197.333 Y257.333 F2000  ; DRAW LINE
G1 X194.667 Y257.333 F2000  ; DRAW LINE
G1 X182.667 Y262.667 F2000  ; DRAW LINE
G1 X172.000 Y264.000 F2000  ; DRAW LINE
G1 X170.667 Y265.333 F2000  ; DRAW LINE
G1 X164.000 Y265.333 F2000  ; DRAW LINE
G1 X162.667 Y266.667 F2000  ; DRAW LINE
G1 X138.667 Y266.667 F2000  ; DRAW LINE
G0 Z5.00               ; PEN UP

G0 X138.000 Y252.000   ; RAPID TO START
G1 Z-1.00 F500    ; PEN DOWN
G4 P100           ; DWELL
G1 X162.000 Y252.000 F2000  ; DRAW LINE
G1 X163.333 Y250.667 F2000  ; DRAW LINE
G1 X170.000 Y250.667 F2000  ; DRAW LINE
G1 X171.333 Y249.333 F2000  ; DRAW LINE
G1 X184.667 Y246.667 F2000  ; DRAW LINE
G1 X206.000 Y236.000 F2000  ; DRAW LINE
G1 X226.667 Y218.000 F2000  ; DRAW LINE
G1 X240.000 Y199.333 F2000  ; DRAW LINE
G1 X248.000 Y180.667 F2000  ; DRAW LINE
G1 X248.000 Y176.667 F2000  ; DRAW LINE
G1 X250.667 Y170.000 F2000  ; DRAW LINE
G1 X250.667 Y163.333 F2000  ; DRAW LINE
G1 X252.000 Y162.000 F2000  ; DRAW LINE
G1 X252.000 Y138.000 F2000  ; DRAW LINE
G1 X250.667 Y136.667 F2000  ; DRAW LINE
G1 X250.667 Y130.000 F2000  ; DRAW LINE
G1 X249.333 Y128.667 F2000  ; DRAW LINE
G1 X248.000 Y119.333 F2000  ; DRAW LINE
G1 X240.000 Y100.667 F2000  ; DRAW LINE
G1 X226.667 Y82.000 F2000  ; DRAW LINE
G1 X218.000 Y73.333 F2000  ; DRAW LINE
G1 X199.333 Y60.000 F2000  ; DRAW LINE
G1 X180.667 Y52.000 F2000  ; DRAW LINE
G1 X176.667 Y52.000 F2000  ; DRAW LINE
G1 X170.000 Y49.333 F2000  ; DRAW LINE
G1 X163.333 Y49.333 F2000  ; DRAW LINE
G1 X162.000 Y48.000 F2000  ; DRAW LINE
G1 X138.000 Y48.000 F2000  ; DRAW LINE
G1 X136.667 Y49.333 F2000  ; DRAW LINE
G1 X130.000 Y49.333 F2000  ; DRAW LINE
G1 X128.667 Y50.667 F2000  ; DRAW LINE
G1 X119.333 Y52.000 F2000  ; DRAW LINE
G1 X100.667 Y60.000 F2000  ; DRAW LINE
G1 X82.000 Y73.333 F2000  ; DRAW LINE
G1 X73.333 Y82.000 F2000  ; DRAW LINE
G1 X60.000 Y100.667 F2000  ; DRAW LINE
G1 X52.000 Y119.333 F2000  ; DRAW LINE
G1 X52.000 Y123.333 F2000  ; DRAW LINE
G1 X49.333 Y130.000 F2000  ; DRAW LINE
G1 X49.333 Y136.667 F2000  ; DRAW LINE
G1 X48.000 Y138.000 F2000  ; DRAW LINE
G1 X48.000 Y162.000 F2000  ; DRAW LINE
G1 X49.333 Y163.333 F2000  ; DRAW LINE
G1 X49.333 Y170.000 F2000  ; DRAW LINE
G1 X50.667 Y171.333 F2000  ; DRAW LINE
G1 X52.000 Y180.667 F2000  ; DRAW LINE
G1 X60.000 Y199.333 F2000  ; DRAW LINE
G1 X73.333 Y218.000 F2000  ; DRAW LINE
G1 X82.000 Y226.667 F2000  ; DRAW LINE
G1 X94.000 Y236.000 F2000  ; DRAW LINE
G1 X108.667 Y244.000 F2000  ; DRAW LINE
G1 X111.333 Y244.000 F2000  ; DRAW LINE
G1 X119.333 Y248.000 F2000  ; DRAW LINE
G1 X123.333 Y248.000 F2000  ; DRAW LINE
G1 X130.000 Y250.667 F2000  ; DRAW LINE
G1 X136.667 Y250.667 F2000  ; DRAW LINE
G1 X138.000 Y252.000 F2000  ; DRAW LINE
G0 Z5.00               ; PEN UP

G0 X113.333 Y194.667   ; RAPID TO START
G1 Z-1.00 F500    ; PEN DOWN
G4 P100           ; DWELL
G1 X111.333 Y193.000 F2000  ; DRAW LINE
G1 X108.000 Y193.333 F2000  ; DRAW LINE
G1 X100.000 Y185.333 F2000  ; DRAW LINE
G1 X98.667 Y181.333 F2000  ; DRAW LINE
G1 X98.667 Y177.333 F2000  ; DRAW LINE
G1 X101.333 Y170.667 F2000  ; DRAW LINE
G1 X109.333 Y165.333 F2000  ; DRAW LINE
G1 X116.333 Y165.000 F2000  ; DRAW LINE
G1 X121.333 Y166.667 F2000  ; DRAW LINE
G1 X128.000 Y174.667 F2000  ; DRAW LINE
G1 X128.000 Y182.667 F2000  ; DRAW LINE
G1 X125.333 Y188.000 F2000  ; DRAW LINE
G1 X122.573 Y191.400 F2000  ; DRAW LINE
G1 X117.773 Y194.067 F2000  ; DRAW LINE
G1 X113.333 Y194.667 F2000  ; DRAW LINE
G0 Z5.00               ; PEN UP

G0 X185.333 Y194.667   ; RAPID TO START
G1 Z-1.00 F500    ; PEN DOWN
G4 P100           ; DWELL
G1 X178.667 Y192.000 F2000  ; DRAW LINE
G1 X172.000 Y182.667 F2000  ; DRAW LINE
G1 X171.840 Y175.627 F2000  ; DRAW LINE
G1 X173.333 Y172.000 F2000  ; DRAW LINE
G1 X182.667 Y165.333 F2000  ; DRAW LINE
G1 X190.827 Y165.173 F2000  ; DRAW LINE
G1 X194.667 Y166.667 F2000  ; DRAW LINE
G1 X198.667 Y170.667 F2000  ; DRAW LINE
G1 X201.333 Y177.333 F2000  ; DRAW LINE
G1 X200.000 Y185.333 F2000  ; DRAW LINE
G1 X193.333 Y193.333 F2000  ; DRAW LINE
G1 X185.333 Y194.667 F2000  ; DRAW LINE
G0 Z5.00               ; PEN UP

G0 X92.000 Y126.667   ; RAPID TO START
G1 Z-1.00 F500    ; PEN DOWN
G4 P100           ; DWELL
G1 X90.000 Y125.000 F2000  ; DRAW LINE
G1 X86.667 Y125.333 F2000  ; DRAW LINE
G1 X84.000 Y118.667 F2000  ; DRAW LINE
G1 X86.667 Y112.000 F2000  ; DRAW LINE
G1 X93.333 Y102.667 F2000  ; DRAW LINE
G1 X97.813 Y98.507 F2000  ; DRAW LINE
G1 X108.053 Y90.827 F2000  ; DRAW LINE
G1 X120.000 Y84.000 F2000  ; DRAW LINE
G1 X132.000 Y80.000 F2000  ; DRAW LINE
G1 X136.000 Y80.000 F2000  ; DRAW LINE
G1 X137.333 Y78.667 F2000  ; DRAW LINE
G1 X146.667 Y78.667 F2000  ; DRAW LINE
G1 X148.000 Y77.333 F2000  ; DRAW LINE
G1 X150.280 Y76.893 F2000  ; DRAW LINE
G1 X152.320 Y77.173 F2000  ; DRAW LINE
G1 X154.667 Y78.667 F2000  ; DRAW LINE
G1 X164.000 Y78.667 F2000  ; DRAW LINE
G1 X170.667 Y81.333 F2000  ; DRAW LINE
G1 X174.667 Y81.333 F2000  ; DRAW LINE
G1 X186.667 Y86.667 F2000  ; DRAW LINE
G1 X201.840 Y97.893 F2000  ; DRAW LINE
G1 X208.667 Y106.000 F2000  ; DRAW LINE
G1 X216.000 Y117.333 F2000  ; DRAW LINE
G1 X213.333 Y125.333 F2000  ; DRAW LINE
G1 X210.333 Y125.000 F2000  ; DRAW LINE
G1 X209.333 Y126.667 F2000  ; DRAW LINE
G1 X205.333 Y125.333 F2000  ; DRAW LINE
G1 X198.667 Y116.000 F2000  ; DRAW LINE
G1 X182.667 Y101.333 F2000  ; DRAW LINE
G1 X164.000 Y93.333 F2000  ; DRAW LINE
G1 X156.000 Y93.333 F2000  ; DRAW LINE
G1 X154.667 Y92.000 F2000  ; DRAW LINE
G1 X137.333 Y93.333 F2000  ; DRAW LINE
G1 X129.333 Y96.000 F2000  ; DRAW LINE
G1 X114.667 Y104.000 F2000  ; DRAW LINE
G1 X101.333 Y116.000 F2000  ; DRAW LINE
G1 X96.947 Y123.493 F2000  ; DRAW LINE
G1 X92.000 Y126.667 F2000  ; DRAW LINE
G0 Z5.00               ; PEN UP

; END DRAWING
G0 Z5.00      ; PEN UP
G0 X0 Y0     ; RETURN TO ORIGIN
M2           ; PROGRAM END